X:1
T:Katushka Counterpoint
C:copyright 1999 Jim Thompson
N:A flute part
R:Reel
E:28
M:2/4
K:Am
|: e4a2g2 | a2g2f2e2 | f2e2d2c2 | d4B4 |
| d4d2e2 | f2e2f4 | d2e2f2^g2 | e8 :|
|: c'4e'2c'2 | b4d'2b2 | a4g2f2 | a8 |
| f2g2f2d2 | e2f2e2c2 | d2e2^f2^g2 | a8 :|
